icons/member-discrepency.svg

<svg
  xmlns="http://www.w3.org/2000/svg"
  viewBox="0 0 500 500"
  width="500"
  height="500"
  fill="#ffffff"
>
  <circle cx="212.9" cy="105.8" r="100.8" />
  <path d="M241 460.5l107.8-187c-1.9-1.9-3.8-3.8-5.7-5.5-48.8-41.6-130.2-40.4-130.2-40.4s-81.5-1.2-130.2 40.4S20 438.2 20 438.2c80.1 20.4 157.1 24.6 221 22.3z" />
  <path d="M479.9 483.9a11.4 11.4 0 0 0-1.5-6.7l-85.7-148.4-8.5-14.8a11.8 11.8 0 0 0-10.3-5.9 11.6 11.6 0 0 0-10.2 5.9l-94.3 163.2a12 12 0 0 0 0 11.9 11.8 11.8 0 0 0 10.3 5.9h188.4a11.7 11.7 0 0 0 10.3-5.9 12 12 0 0 0 1.5-5.1zm-93.6-123.8l-.8 63.5h-22l-.5-63.5zm-11.8 118.8c-10.4 0-17.4-7.6-17.4-17.6s7.2-17.6 17.4-17.6 17 7.3 17.2 17.6-6.7 17.6-17.2 17.6z" />
</svg>

<svg xmlns="http://www.w3.org/2000/svg" viewBox="0 0 500 500">
  <g id="member-discrepency">
    <circle id="head" cx="212.9" cy="105.8" r="100.8"/>
    <path id="body" d="M241,460.5l107.8-187c-1.9-1.9-3.8-3.8-5.7-5.5-48.8-41.6-130.2-40.4-130.2-40.4S131.4,226.4,82.7,268,20,438.2,20,438.2C100.1,458.6,177.1,462.8,241,460.5Z"/>
    <path id="error-triangle" d="M479.9,483.9a11.4,11.4,0,0,0-1.5-6.7L392.7,328.8h0L384.2,314a11.8,11.8,0,0,0-10.3-5.9h0a11.6,11.6,0,0,0-10.2,5.9L269.4,477.2a12,12,0,0,0,0,11.9,11.8,11.8,0,0,0,10.3,5.9H468.1a11.7,11.7,0,0,0,10.3-5.9,12,12,0,0,0,1.5-5.1h0ZM386.3,360.1l-.8,63.5h-22l-.5-63.5ZM374.5,478.9c-10.4,0-17.4-7.6-17.4-17.6s7.2-17.6,17.4-17.6,17,7.3,17.2,17.6S385,478.9,374.5,478.9Z"/>
  </g>
</svg>
